; generated by PrusaSlicer 2.8.0+win64 on 2025-04-10 at 07:45:21 UTC


;
;
; 

; external perimeters extrusion width = 0.45mm
; perimeters extrusion width = 0.45mm
; infill extrusion width = 0.45mm
; solid infill extrusion width = 0.45mm
; top infill extrusion width = 0.40mm
; support material extrusion width = 0.40mm
; first layer extrusion width = 0.70mm

M73 P0 R77
M73 Q0 S78
M201 X1000 Y1000 Z200 E5000 ; sets maximum accelerations, mm/sec^2
M203 X200 Y200 Z12 E120 ; sets maximum feedrates, mm / sec
M204 S1250 T1250 ; sets acceleration (S) and retract acceleration (R), mm/sec^2
M205 X8.00 Y8.00 Z0.40 E4.50 ; sets the jerk limits, mm/sec
M205 S0 T0 ; sets the minimum extruding and travel feed rate, mm/sec
;TYPE:Custom
M862.3 P "MK3S" ; printer model check
M862.1 P0.4 ; nozzle diameter check
M115 U3.14.0 ; tell printer latest fw version
G90 ; use absolute coordinates
M83 ; extruder relative mode
M104 S215 ; set extruder temp
M140 S60 ; set bed temp
M190 S60 ; wait for bed temp
M109 S215 ; wait for extruder temp
G28 W ; home all without mesh bed level
G80 X90.8751 Y73.3751 W68.2498 H63.2498 ; mesh bed levelling

G1 Z0.2 F720
G1 Y-3 F1000 ; go outside print area
G92 E0
G1 X60 E9 F1000 ; intro line
G1 X100 E12.5 F1000 ; intro line

G92 E0
M221 S95

; Don't change E values below. Excessive value can damage the printer.

G21 ; set units to millimeters
G90 ; use absolute coordinates
M83 ; use relative distances for extrusion

M900 K0.05 ; Filament gcode LA 1.5
M900 K30 ; Filament gcode LA 1.0




M107
;LAYER_CHANGE
;Z:0.35
;HEIGHT:0.35
G1 E-.8 F2100
G1 Z.75 F7800
G1 X94.267 Y78.48
G1 Z.35
G1 E.8 F2100
;TYPE:Skirt/Brim
;WIDTH:0.7
G1 F1800
G1 X95.98 Y76.767 E.22028
G1 X96.997 Y76.007 E.11544
G1 X98.471 Y75.128 E.15605
G1 X99.631 Y74.613 E.11541
G1 X101.256 Y74.086 E.15534
G1 X103.36 Y73.744 E.19383
G1 X104.358 Y73.688 E.09089
G1 X145.643 Y73.688 E3.75403
G1 X148.189 Y73.959 E.23281
G1 X150.369 Y74.613 E.20695
G1 X152.149 Y75.47 E.17964
G1 X154.02 Y76.767 E.20701
G1 X155.733 Y78.48 E.22028
G1 X157.03 Y80.351 E.20701
G1 X157.887 Y82.131 E.17964
G1 X158.539 Y84.3 E.20594
G1 X158.812 Y86.858 E.23392
G1 X158.787 Y123.774 E3.35676
G1 X158.543 Y125.681 E.17482
G1 X157.891 Y127.857 E.20655
G1 X157.031 Y129.647 E.18057
G1 X155.74 Y131.511 E.20618
G1 X154.557 Y132.753 E.15597
G1 X153.585 Y133.58 E.11605
G1 X152.152 Y134.528 E.15623
G1 X151.033 Y135.111 E.11473
G1 X149.432 Y135.715 E.15559
G1 X148.205 Y136.037 E.11535
G1 X145.661 Y136.312 E.23267
G1 X103.726 Y136.287 E3.81313
G1 X101.82 Y136.043 E.17473
G1 X99.643 Y135.391 E.20664
G1 X97.853 Y134.531 E.18057
G1 X95.989 Y133.24 E.20618
G1 X94.75 Y132.06 E.15558
G1 X93.927 Y131.094 E.11539
G1 X92.636 Y129.044 E.22029
G1 X92.12 Y127.885 E.11536
G1 X91.588 Y126.252 E.15617
G1 X91.343 Y125.007 E.11538
G1 X91.198 Y123.502 E.13748
G1 X91.213 Y86.226 E3.38949
G1 X91.459 Y84.311 E.17556
G1 X92.113 Y82.131 E.20695
G1 X92.97 Y80.351 E.17964
G1 X94.233 Y78.53 E.20151
;WIPE_START
G1 F6240
G1 X94.267 Y78.48 E-.01933
G1 X95.98 Y76.767 E-.77452
G1 X95.995 Y76.755 E-.00615
;WIPE_END
G1 Z.75 F7800
G1 X99.142 Y83.002
G1 Z.35
G1 E.8 F2100
G1 F1800
G1 X100.049 Y82.007 E.12242
G1 X101.922 Y80.827 E.20129
G1 X103.12 Y80.458 E.11398
G1 X104.376 Y80.313 E.11497
G1 X145.632 Y80.314 E3.75139
G1 X146.989 Y80.482 E.12433
G1 X148.301 Y80.929 E.12603
G1 X149.496 Y81.64 E.12644
G1 X150.493 Y82.548 E.12262
G1 X151.67 Y84.415 E.20069
G1 X152.014 Y85.491 E.10272
G1 X152.175 Y86.682 E.10928
G1 X152.187 Y123.129 E3.31411
G1 X152.018 Y124.489 E.12462
G1 X151.571 Y125.801 E.12603
G1 X150.86 Y126.996 E.12644
G1 X149.951 Y127.993 E.12268
G1 X148.078 Y129.173 E.20129
G1 X146.88 Y129.542 E.11398
G1 X145.624 Y129.687 E.11497
G1 X104.371 Y129.687 E3.75112
G1 X103.011 Y129.518 E.12462
G1 X101.699 Y129.071 E.12603
G1 X100.504 Y128.36 E.12644
G1 X99.507 Y127.451 E.12268
G1 X98.327 Y125.578 E.20129
G1 X97.958 Y124.38 E.11398
G1 X97.813 Y123.124 E.11497
G1 X97.813 Y86.871 E3.29647
G1 X97.982 Y85.511 E.12462
G1 X98.429 Y84.199 E.12603
G1 X99.111 Y83.053 E.12126
G1 X99.111 Y83.053 F7800
G1 X99.646 Y83.375
G1 F1800
G1 X99.659 Y83.354 E.00225
G1 X100.48 Y82.461 E.1103
G1 X102.148 Y81.411 E.17922
G1 X103.222 Y81.075 E.10233
G1 X104.395 Y80.938 E.10739
G1 X145.612 Y80.939 E3.74784
G1 X146.878 Y81.098 E.11602
G1 X148.065 Y81.508 E.11419
G1 X149.146 Y82.159 E.11474
G1 X150.039 Y82.98 E.1103
G1 X151.087 Y84.643 E.17874
G1 X151.41 Y85.654 E.09651
G1 X151.553 Y86.742 E.09978
G1 X151.562 Y123.109 E3.30684
G1 X151.402 Y124.378 E.1163
G1 X150.992 Y125.565 E.11419
G1 X150.341 Y126.646 E.11474
G1 X149.52 Y127.539 E.1103
G1 X147.852 Y128.589 E.17922
G1 X146.778 Y128.925 E.10233
G1 X145.605 Y129.062 E.10739
G1 X104.391 Y129.062 E3.74757
G1 X103.122 Y128.902 E.1163
G1 X101.935 Y128.492 E.11419
G1 X100.854 Y127.841 E.11474
G1 X99.961 Y127.02 E.1103
G1 X98.911 Y125.352 E.17922
G1 X98.575 Y124.278 E.10233
G1 X98.438 Y123.105 E.10739
G1 X98.438 Y86.891 E3.29292
G1 X98.598 Y85.622 E.1163
G1 X99.008 Y84.435 E.11419
G1 X99.615 Y83.427 E.10699
G1 X99.615 Y83.427 F7800
G1 X100.141 Y83.752
G1 F1800
G1 X100.912 Y82.914 E.10354
G1 X102.373 Y81.995 E.15694
G1 X103.38 Y81.681 E.09591
M73 Q0 S77
G1 X104.412 Y81.563 E.09445
G1 X145.593 Y81.563 E3.74457
G1 X146.708 Y81.7 E.10215
G1 X147.775 Y82.063 E.10248
G1 X148.748 Y82.641 E.10291
G1 X149.586 Y83.412 E.10354
G1 X150.504 Y84.87 E.15667
G1 X150.805 Y85.816 E.09027
G1 X150.93 Y86.801 E.09028
G1 X150.937 Y123.091 E3.29983
G1 X150.8 Y124.208 E.10233
G1 X150.437 Y125.275 E.10248
G1 X149.859 Y126.248 E.10291
G1 X149.088 Y127.086 E.10354
G1 X147.627 Y128.005 E.15694
G1 X146.62 Y128.319 E.09591
G1 X145.588 Y128.437 E.09445
G1 X104.409 Y128.437 E3.74439
G1 X103.292 Y128.3 E.10233
G1 X102.225 Y127.937 E.10248
G1 X101.252 Y127.359 E.10291
G1 X100.414 Y126.588 E.10354
G1 X99.495 Y125.127 E.15694
G1 X99.181 Y124.12 E.09591
G1 X99.063 Y123.088 E.09445
G1 X99.063 Y86.909 E3.28974
G1 X99.2 Y85.792 E.10233
G1 X99.563 Y84.725 E.10248
G1 X100.111 Y83.804 E.09745
G1 X100.111 Y83.804 F7800
G1 X100.645 Y84.126
G1 F1800
G1 X100.659 Y84.104 E.00237
G1 X101.341 Y83.37 E.09111
G1 X102.601 Y82.578 E.13533
G1 X103.483 Y82.298 E.08414
G1 X104.43 Y82.188 E.08669
G1 X145.574 Y82.188 E3.74121
G1 X146.597 Y82.316 E.09375
G1 X147.538 Y82.642 E.09055
G1 X148.396 Y83.159 E.09109
G1 X149.13 Y83.841 E.09111
G1 X149.921 Y85.098 E.13505
G1 X150.201 Y85.977 E.08388
G1 X150.308 Y86.857 E.08061
G1 X150.312 Y123.071 E3.29292
G1 X150.184 Y124.097 E.09402
G1 X149.858 Y125.038 E.09055
G1 X149.341 Y125.896 E.09109
G1 X148.659 Y126.63 E.09111
G1 X147.399 Y127.422 E.13533
G1 X146.517 Y127.702 E.08414
G1 X145.57 Y127.812 E.08669
G1 X104.429 Y127.812 E3.74093
G1 X103.403 Y127.684 E.09402
G1 X102.462 Y127.358 E.09055
G1 X101.604 Y126.841 E.09109
G1 X100.87 Y126.159 E.09111
G1 X100.078 Y124.899 E.13533
G1 X99.798 Y124.017 E.08414
G1 X99.688 Y123.07 E.08669
G1 X99.688 Y86.929 E3.28629
G1 X99.816 Y85.903 E.09402
G1 X100.142 Y84.962 E.09055
G1 X100.614 Y84.177 E.08329
G1 X100.614 Y84.177 F7800
G1 X101.15 Y84.5
G1 F1800
G1 X101.176 Y84.456 E.00465
G1 X101.768 Y83.828 E.07848
G1 X102.828 Y83.162 E.11383
G1 X103.642 Y82.903 E.07767
G1 X104.447 Y82.813 E.07365
G1 X145.556 Y82.813 E3.73802
G1 X146.429 Y82.919 E.07996
G1 X147.245 Y83.195 E.07833
G1 X148.044 Y83.676 E.0848
G1 X148.672 Y84.268 E.07848
G1 X149.339 Y85.329 E.11396
G1 X149.584 Y86.083 E.07209
G1 X149.685 Y86.913 E.07603
G1 X149.687 Y123.053 E3.2862
G1 X149.581 Y123.929 E.08024
G1 X149.305 Y124.745 E.07833
G1 X148.824 Y125.544 E.0848
G1 X148.232 Y126.172 E.07848
G1 X147.172 Y126.838 E.11383
G1 X146.358 Y127.097 E.07767
G1 X145.553 Y127.187 E.07365
G1 X104.447 Y127.187 E3.73775
G1 X103.571 Y127.081 E.08024
G1 X102.755 Y126.805 E.07833
G1 X101.956 Y126.324 E.0848
G1 X101.328 Y125.732 E.07848
G1 X100.662 Y124.672 E.11383
G1 X100.403 Y123.858 E.07767
G1 X100.313 Y123.053 E.07365
G1 X100.313 Y86.947 E3.2831
G1 X100.419 Y86.071 E.08024
M73 P1 R77
M73 Q1 S77
G1 X100.695 Y85.255 E.07833
G1 X101.119 Y84.551 E.07473
G1 X101.119 Y84.551 F7800
G1 X101.651 Y84.877
G1 F1800
G1 X101.69 Y84.812 E.00689
G1 X102.191 Y84.288 E.06592
G1 X103.059 Y83.744 E.09315
G1 X103.746 Y83.52 E.06571
G1 X104.465 Y83.438 E.0658
G1 X145.536 Y83.438 E3.73457
G1 X146.318 Y83.534 E.07164
M73 P1 R76
G1 X147.006 Y83.773 E.06623
G1 X147.688 Y84.19 E.07269
G1 X148.212 Y84.691 E.06592
G1 X148.756 Y85.559 E.09315
G1 X148.98 Y86.246 E.06571
G1 X149.062 Y86.965 E.0658
G1 X149.062 Y123.033 E3.27965
G1 X148.966 Y123.818 E.07191
G1 X148.727 Y124.506 E.06623
G1 X148.31 Y125.188 E.07269
G1 X147.809 Y125.712 E.06592
G1 X146.941 Y126.256 E.09315
G1 X146.254 Y126.48 E.06571
G1 X145.535 Y126.562 E.0658
G1 X104.467 Y126.562 E3.7343
G1 X103.682 Y126.466 E.07191
G1 X102.994 Y126.227 E.06623
G1 X102.312 Y125.81 E.07269
G1 X101.788 Y125.309 E.06592
G1 X101.244 Y124.441 E.09315
G1 X101.02 Y123.754 E.06571
G1 X100.938 Y123.035 E.0658
G1 X100.938 Y86.966 E3.27974
G1 X101.034 Y86.182 E.07182
G1 X101.273 Y85.494 E.06623
G1 X101.62 Y84.928 E.06037
G1 X101.62 Y84.928 F7800
G1 X102.148 Y85.258
G1 F1800
G1 X102.201 Y85.174 E.00903
G1 X102.612 Y84.752 E.05356
G1 X103.294 Y84.324 E.07321
G1 X103.852 Y84.136 E.05354
G1 X104.484 Y84.063 E.05785
G1 X145.519 Y84.063 E3.7313
G1 X146.146 Y84.136 E.0574
G1 X146.767 Y84.352 E.05979
G1 X147.326 Y84.701 E.05992
G1 X147.748 Y85.112 E.05356
G1 X148.176 Y85.794 E.07321
G1 X148.364 Y86.352 E.05354
G1 X148.437 Y86.984 E.05785
G1 X148.437 Y123.016 E3.27637
G1 X148.364 Y123.646 E.05767
G1 X148.148 Y124.267 E.05979
G1 X147.799 Y124.826 E.05992
G1 X147.388 Y125.248 E.05356
G1 X146.706 Y125.676 E.07321
G1 X146.148 Y125.864 E.05354
G1 X145.516 Y125.937 E.05785
G1 X104.484 Y125.937 E3.73102
G1 X103.854 Y125.864 E.05767
G1 X103.233 Y125.648 E.05979
G1 X102.674 Y125.299 E.05992
G1 X102.252 Y124.888 E.05356
G1 X101.824 Y124.206 E.07321
G1 X101.636 Y123.648 E.05354
G1 X101.563 Y123.016 E.05785
G1 X101.563 Y86.984 E3.27637
G1 X101.636 Y86.354 E.05767
G1 X101.852 Y85.733 E.05979
G1 X102.116 Y85.309 E.04542
G1 X102.116 Y85.309 F7800
G1 X102.645 Y85.632
G1 F1800
G1 X102.674 Y85.584 E.0051
G1 X103.034 Y85.214 E.04694
G1 X103.527 Y84.904 E.05295
G1 X104.017 Y84.74 E.04698
G1 X104.499 Y84.688 E.04408
G1 X145.503 Y84.688 E3.72848
G1 X145.983 Y84.74 E.0439
G1 X146.475 Y84.905 E.04719
G1 X146.916 Y85.174 E.04697
G1 X147.286 Y85.534 E.04694
G1 X147.596 Y86.027 E.05295
G1 X147.76 Y86.517 E.04698
G1 X147.812 Y86.999 E.04408
G1 X147.812 Y123.001 E3.27365
G1 X147.76 Y123.483 E.04408
G1 X147.595 Y123.975 E.04719
G1 X147.326 Y124.416 E.04697
G1 X146.966 Y124.786 E.04694
G1 X146.473 Y125.096 E.05295
G1 X145.983 Y125.26 E.04698
G1 X145.501 Y125.312 E.04408
G1 X104.499 Y125.312 E3.72829
G1 X104.017 Y125.26 E.04408
G1 X103.525 Y125.095 E.04719
G1 X103.084 Y124.826 E.04697
G1 X102.714 Y124.466 E.04694
G1 X102.404 Y123.973 E.05295
G1 X102.24 Y123.483 E.04698
G1 X102.188 Y123.001 E.04408
G1 X102.188 Y86.999 E3.27365
G1 X102.24 Y86.517 E.04408
G1 X102.405 Y86.025 E.04719
G1 X102.614 Y85.683 E.03645
;WIPE_START
G1 F6240
G1 X102.645 Y85.632 E-.01908
G1 X102.674 Y85.584 E-.01793
G1 X103.034 Y85.214 E-.16505
G1 X103.527 Y84.904 E-.18619
G1 X104.017 Y84.74 E-.1652
G1 X104.499 Y84.688 E-.155
G1 X104.785 Y84.688 E-.09155
;WIPE_END
G1 Z.75 F7800
G1 X104.263 Y86.706
G1 Z.35
G1 E.8 F2100
;TYPE:Perimeter
;WIDTH:0.7
G1 F1800
G1 X104.294 Y86.671 E.00425
G1 X104.591 Y86.6 E.02777
G1 X145.381 Y86.6 E3.70902
G1 X145.706 Y86.672 E.03027
G1 X145.851 Y86.831 E.01957
G1 X145.9 Y87.119 E.02656
G1 X145.9 Y122.881 E3.25182
G1 X145.828 Y123.206 E.03027
G1 X145.669 Y123.351 E.01957
G1 X145.41 Y123.4 E.02397
G1 X104.62 Y123.4 E3.70902
G1 X104.331 Y123.351 E.02665
G1 X104.171 Y123.206 E.01963
G1 X104.1 Y122.909 E.02777
G1 X104.1 Y87.12 E3.25428
G1 X104.149 Y86.831 E.02665
G1 X104.223 Y86.75 E.00998
G1 X104.223 Y86.75 F7800
G1 X103.642 Y86.463
G1 F1800
G1 X103.643 Y86.461 E.0002
G1 X103.865 Y86.203 E.03095
G1 X104.165 Y86.045 E.03083
G1 X104.555 Y85.975 E.03603
G1 X145.448 Y85.975 E3.71838
G1 X145.834 Y86.044 E.03566
G1 X146.135 Y86.203 E.03095
G1 X146.357 Y86.461 E.03095
G1 X146.493 Y86.773 E.03095
G1 X146.525 Y87.119 E.0316
G1 X146.525 Y122.881 E3.25182
G1 X146.493 Y123.227 E.0316
G1 X146.357 Y123.539 E.03095
G1 X146.135 Y123.797 E.03095
G1 X145.834 Y123.956 E.03095
G1 X145.445 Y124.025 E.03592
G1 X104.62 Y124.025 E3.7122
G1 X104.273 Y123.993 E.03169
G1 X103.961 Y123.857 E.03095
G1 X103.703 Y123.635 E.03095
G1 X103.545 Y123.335 E.03083
G1 X103.475 Y122.945 E.03603
G1 X103.475 Y87.12 E3.25755
G1 X103.507 Y86.773 E.03169
G1 X103.618 Y86.518 E.02529
G1 X103.618 Y86.518 F7800
G1 X103.036 Y86.252
;TYPE:External perimeter
G1 F1800
G1 X103.212 Y85.973 E.03
G1 X103.473 Y85.712 E.03356
G1 X103.785 Y85.515 E.03355
G1 X104.131 Y85.394 E.03333
G1 X104.52 Y85.35 E.0356
G1 X145.381 Y85.35 E3.71547
G1 X145.867 Y85.394 E.04437
G1 X146.215 Y85.515 E.0335
G1 X146.527 Y85.712 E.03355
G1 X146.788 Y85.973 E.03356
G1 X146.985 Y86.285 E.03355
G1 X147.106 Y86.633 E.0335
G1 X147.15 Y87.119 E.04437
G1 X147.15 Y122.881 E3.25182
G1 X147.106 Y123.367 E.04437
G1 X146.985 Y123.715 E.0335
G1 X146.788 Y124.027 E.03355
G1 X146.527 Y124.288 E.03356
G1 X146.215 Y124.485 E.03355
G1 X145.867 Y124.606 E.0335
G1 X145.48 Y124.65 E.03542
G1 X104.62 Y124.65 E3.71538
G1 X104.133 Y124.606 E.04446
G1 X103.785 Y124.485 E.0335
G1 X103.473 Y124.288 E.03355
G1 X103.212 Y124.027 E.03356
G1 X103.015 Y123.715 E.03355
G1 X102.894 Y123.369 E.03333
G1 X102.85 Y122.98 E.0356
G1 X102.85 Y87.12 E3.26073
G1 X102.894 Y86.633 E.04446
G1 X103.008 Y86.305 E.03157
;WIPE_START
G1 F6240
G1 X103.036 Y86.252 E-.01916
G1 X103.212 Y85.973 E-.10546
G1 X103.473 Y85.712 E-.11801
G1 X103.785 Y85.515 E-.11797
G1 X104.131 Y85.394 E-.11719
G1 X104.52 Y85.35 E-.12516
G1 X105.136 Y85.35 E-.19705
;WIPE_END
G1 Z.75 F7800
G1 X145.713 Y88.14
G1 Z.35
G1 E.8 F2100
;TYPE:Solid infill
;WIDTH:0.700248
G1 F1800
G1 X144.642 Y87.069 E.13778
G1 X143.758 Y87.069 E.08041
G1 X145.432 Y88.742 E.21529
G1 X145.432 Y89.627 E.0805
G1 X142.874 Y87.069 E.32907
G1 X141.99 Y87.069 E.08041
G1 X145.432 Y90.511 E.4428
G1 X145.432 Y91.395 E.08041
G1 X141.106 Y87.069 E.55652
G1 X140.221 Y87.069 E.0805
G1 X145.432 Y92.279 E.6703
G1 X145.432 Y93.163 E.08041
G1 X139.337 Y87.069 E.78403
G1 X138.453 Y87.069 E.08041
G1 X145.432 Y94.047 E.89775
G1 X145.432 Y94.931 E.08041
G1 X137.569 Y87.069 E1.01147
G1 X136.685 Y87.069 E.08041
G1 X145.432 Y95.815 E1.12519
G1 X145.432 Y96.699 E.08041
G1 X135.801 Y87.069 E1.23891
G1 X134.917 Y87.069 E.08041
G1 X145.432 Y97.583 E1.35264
G1 X145.432 Y98.467 E.08041
G1 X134.033 Y87.069 E1.46636
G1 X133.149 Y87.069 E.08041
G1 X145.432 Y99.351 E1.58008
G1 X145.432 Y100.235 E.08041
G1 X132.265 Y87.069 E1.6938
G1 X131.381 Y87.069 E.08041
G1 X145.432 Y101.12 E1.80759
G1 X145.432 Y102.004 E.08041
G1 X130.497 Y87.069 E1.92131
G1 X129.612 Y87.069 E.0805
M73 Q1 S76
G1 X145.432 Y102.888 E2.0351
G1 X145.432 Y103.772 E.08041
G1 X128.728 Y87.069 E2.14882
G1 X127.844 Y87.069 E.08041
G1 X145.432 Y104.656 E2.26254
G1 X145.432 Y105.54 E.08041
G1 X126.96 Y87.069 E2.37626
G1 X126.076 Y87.069 E.08041
G1 X145.432 Y106.424 E2.48998
G1 X145.432 Y107.308 E.08041
M73 P2 R76
G1 X125.192 Y87.069 E2.60371
G1 X124.308 Y87.069 E.08041
M73 Q2 S76
G1 X145.432 Y108.192 E2.71743
G1 X145.432 Y109.076 E.08041
G1 X123.424 Y87.069 E2.83115
G1 X122.54 Y87.069 E.08041
G1 X145.432 Y109.96 E2.94487
G1 X145.432 Y110.844 E.08041
G1 X121.656 Y87.069 E3.05859
G1 X120.772 Y87.069 E.08041
G1 X145.432 Y111.728 E3.17232
G1 X145.432 Y112.613 E.0805
G1 X119.888 Y87.069 E3.2861
G1 X119.003 Y87.069 E.0805
G1 X145.432 Y113.497 E3.39989
G1 X145.432 Y114.381 E.08041
G1 X118.119 Y87.069 E3.51361
G1 X117.235 Y87.069 E.08041
G1 X145.432 Y115.265 E3.62733
G1 X145.432 Y116.149 E.08041
G1 X116.351 Y87.069 E3.74105
G1 X115.467 Y87.069 E.08041
G1 X145.432 Y117.033 E3.85478
G1 X145.432 Y117.917 E.08041
G1 X114.583 Y87.069 E3.9685
G1 X113.699 Y87.069 E.08041
M73 P2 R75
G1 X145.432 Y118.801 E4.08222
G1 X145.432 Y119.685 E.08041
G1 X112.815 Y87.069 E4.19594
G1 X111.931 Y87.068 E.08041
G1 X145.432 Y120.569 E4.30973
