; generated by PrusaSlicer 2.8.0+win64 on 2025-04-10 at 09:08:29 UTC


;
;
; 

; external perimeters extrusion width = 0.45mm
; perimeters extrusion width = 0.45mm
; infill extrusion width = 0.45mm
; solid infill extrusion width = 0.45mm
; top infill extrusion width = 0.40mm
; support material extrusion width = 0.40mm
; first layer extrusion width = 0.70mm

; external perimeters extrusion width = 0.45mm
; perimeters extrusion width = 0.45mm
; infill extrusion width = 0.45mm
; solid infill extrusion width = 0.45mm
; top infill extrusion width = 0.40mm
; support material extrusion width = 0.40mm
; first layer extrusion width = 0.70mm

; external perimeters extrusion width = 0.45mm
; perimeters extrusion width = 0.45mm
; infill extrusion width = 0.45mm
; solid infill extrusion width = 0.45mm
; top infill extrusion width = 0.40mm
; support material extrusion width = 0.40mm
; first layer extrusion width = 0.70mm

M73 P0 R30
M73 Q0 S30
M201 X1000 Y1000 Z200 E5000 ; sets maximum accelerations, mm/sec^2
M203 X200 Y200 Z12 E120 ; sets maximum feedrates, mm / sec
M204 S1250 T1250 ; sets acceleration (S) and retract acceleration (R), mm/sec^2
M205 X8.00 Y8.00 Z0.40 E4.50 ; sets the jerk limits, mm/sec
M205 S0 T0 ; sets the minimum extruding and travel feed rate, mm/sec
;TYPE:Custom
M862.3 P "MK3S" ; printer model check
M862.1 P0.4 ; nozzle diameter check
M115 U3.14.0 ; tell printer latest fw version
G90 ; use absolute coordinates
M83 ; extruder relative mode
M104 S215 ; set extruder temp
M140 S60 ; set bed temp
M190 S60 ; wait for bed temp
M109 S215 ; wait for extruder temp
G28 W ; home all without mesh bed level
G80 X99.8353 Y78.9316 W68.2498 H84.7373 ; mesh bed levelling

G1 Z0.2 F720
G1 Y-3 F1000 ; go outside print area
G92 E0
G1 X60 E9 F1000 ; intro line
G1 X100 E12.5 F1000 ; intro line

G92 E0
M221 S95

; Don't change E values below. Excessive value can damage the printer.

G21 ; set units to millimeters
G90 ; use absolute coordinates
M83 ; use relative distances for extrusion

M900 K0.05 ; Filament gcode LA 1.5
M900 K30 ; Filament gcode LA 1.0




M107
;LAYER_CHANGE
;Z:0.35
;HEIGHT:0.35
G1 E-.8 F2100
G1 Z.75 F7800
G1 X103.227 Y84.037
G1 Z.35
G1 E.8 F2100
;TYPE:Skirt/Brim
;WIDTH:0.7
G1 F1800
G1 X104.413 Y82.795 E.15615
G1 X105.38 Y81.973 E.1154
G1 X106.812 Y81.027 E.15606
G1 X107.937 Y80.441 E.11534
G1 X109.544 Y79.836 E.15614
G1 X111.469 Y79.397 E.17953
G1 X113.32 Y79.244 E.16888
G1 X154.954 Y79.254 E3.78576
G1 X157.149 Y79.515 E.201
G1 X159.329 Y80.17 E.20698
G1 X161.109 Y81.027 E.17964
G1 X162.98 Y82.323 E.20696
G1 X164.693 Y84.037 E.22035
G1 X165.99 Y85.908 E.20701
G1 X166.847 Y87.687 E.17956
G1 X167.501 Y89.868 E.20704
G1 X167.773 Y92.416 E.233
G1 X167.773 Y128.697 E3.29902
G1 X167.501 Y131.245 E.233
G1 X167.18 Y132.473 E.11541
G1 X166.576 Y134.079 E.15602
G1 X165.99 Y135.205 E.11542
G1 X165.132 Y136.523 E.143
G1 X153.698 Y151.552 E1.71712
G1 X153.138 Y152.194 E.07746
G1 X150.209 Y155.122 E.37659
G1 X149.233 Y155.92 E.11464
G1 X139.599 Y162.306 E1.05099
G1 X137.544 Y163.192 E.20349
G1 X136.112 Y163.356 E.13106
G1 X121.97 Y163.356 E1.28593
G1 X119.767 Y162.96 E.20353
G1 X117.506 Y161.508 E.24434
G1 X114.577 Y158.579 E.37665
G1 X113.459 Y157.064 E.17121
G1 X101.694 Y134.795 E2.29013
G1 X101.073 Y133.426 E.13669
G1 X100.544 Y131.793 E.15608
G1 X100.3 Y130.547 E.11545
G1 X100.148 Y128.697 E.16879
G1 X100.148 Y92.416 E3.29902
G1 X100.419 Y89.868 E.233
G1 X100.74 Y88.64 E.11541
G1 X101.344 Y87.034 E.15602
G1 X102.108 Y85.626 E.14566
G1 X103.193 Y84.086 E.1713
;WIPE_START
G1 F6240
G1 X103.227 Y84.037 E-.01907
G1 X104.413 Y82.795 E-.54904
G1 X104.965 Y82.325 E-.23189
;WIPE_END
G1 Z.75 F7800
G1 X122.473 Y138.563
G1 Z.35
G1 E.8 F2100
G1 F1800
G1 X123.473 Y138.357 E.09284
G1 X133.714 Y138.357 E.93121
G1 X134.865 Y137.158 E.15113
G1 X135.568 Y136.706 E.076
G1 X136.389 Y136.39 E.07999
G1 X137.029 Y136.28 E.05905
G1 X144.312 Y136.278 E.66224
G1 X145.039 Y136.414 E.06725
G1 X145.766 Y136.697 E.07094
G1 X146.595 Y137.251 E.09066
G1 X147.438 Y138.105 E.10911
G1 X147.822 Y138.653 E.06085
G1 X148.19 Y139.497 E.08372
G1 X148.337 Y140.155 E.06131
G1 X148.331 Y146.501 E.57704
G1 X148.152 Y147.232 E.06843
G1 X147.747 Y148.093 E.08652
G1 X147.361 Y148.601 E.05801
G1 X146.345 Y149.57 E.12767
G1 X145.209 Y150.152 E.11606
G1 X144.376 Y150.333 E.07751
M73 Q1 S30
G1 X138.728 Y150.344 E.51357
G1 X138.717 Y152.715 E.2156
M73 P1 R30
G1 X138.565 Y153.483 E.07119
G1 X138.29 Y154.157 E.06619
G1 X137.858 Y154.833 E.07295
G1 X136.879 Y155.82 E.12641
G1 X136.201 Y156.271 E.07404
G1 X135.31 Y156.616 E.08688
G1 X134.602 Y156.731 E.06522
G1 X123.277 Y156.711 E1.02978
G1 X122.561 Y156.554 E.06665
G1 X121.873 Y156.266 E.06782
G1 X121.313 Y155.91 E.06034
G1 X120.284 Y154.906 E.13073
G1 X119.901 Y154.365 E.06027
G1 X119.56 Y153.612 E.07516
G1 X119.354 Y152.612 E.09284
G1 X119.354 Y142.476 E.92166
G1 X119.51 Y141.635 E.07778
G1 X119.819 Y140.875 E.0746
G1 X120.175 Y140.316 E.06026
G1 X121.179 Y139.287 E.13073
G1 X121.719 Y138.904 E.0602
G1 X122.418 Y138.588 E.06975
G1 X122.418 Y138.588 F7800
G1 X122.676 Y139.157
G1 F1800
G1 X122.699 Y139.147 E.00228
G1 X123.504 Y138.982 E.07472
G1 X134.069 Y138.982 E.96067
G1 X134.327 Y138.582 E.04328
G1 X135.282 Y137.625 E.12294
G1 X135.873 Y137.252 E.06355
G1 X136.578 Y136.986 E.06852
G1 X137.103 Y136.901 E.04836
G1 X144.281 Y136.903 E.65269
G1 X144.889 Y137.021 E.05632
G1 X145.504 Y137.265 E.06016
G1 X146.172 Y137.712 E.07309
G1 X146.974 Y138.524 E.10378
G1 X147.289 Y138.98 E.0504
G1 X147.603 Y139.713 E.07251
G1 X147.719 Y140.253 E.05022
G1 X147.715 Y146.393 E.55831
G1 X147.571 Y147.001 E.05681
G1 X147.227 Y147.746 E.07462
G1 X146.91 Y148.167 E.04792
G1 X145.941 Y149.092 E.12181
G1 X145.497 Y149.356 E.04697
G1 X144.998 Y149.563 E.04912
G1 X144.28 Y149.715 E.06673
G1 X138.103 Y149.72 E.56167
G1 X138.098 Y152.628 E.26442
G1 X137.973 Y153.281 E.06046
G1 X137.745 Y153.851 E.05582
G1 X137.388 Y154.421 E.06116
G1 X136.502 Y155.321 E.11484
G1 X135.937 Y155.704 E.06207
G1 X135.173 Y156.006 E.0747
G1 X134.576 Y156.106 E.05504
G1 X123.373 Y156.093 E1.01868
G1 X122.771 Y155.965 E.05596
G1 X121.722 Y155.437 E.10679
G1 X120.773 Y154.516 E.12025
G1 X120.457 Y154.078 E.04911
G1 X120.144 Y153.386 E.06906
G1 X119.979 Y152.581 E.07472
G1 X119.979 Y142.506 E.91612
G1 X120.117 Y141.784 E.06684
G1 X120.648 Y140.725 E.10772
G1 X121.568 Y139.776 E.12019
G1 X122.007 Y139.46 E.04918
G1 X122.621 Y139.182 E.06129
G1 X122.621 Y139.182 F7800
G1 X122.879 Y139.751
G1 F1800
G1 X122.924 Y139.731 E.00448
G1 X123.535 Y139.607 E.05669
G1 X134.425 Y139.607 E.99022
G1 X134.8 Y138.992 E.0655
G1 X135.651 Y138.13 E.11014
G1 X136.125 Y137.825 E.05125
G1 X136.766 Y137.583 E.0623
G1 X137.171 Y137.522 E.03724
G1 X144.248 Y137.528 E.64351
G1 X145.238 Y137.831 E.09414
G1 X145.75 Y138.174 E.05604
G1 X146.508 Y138.941 E.09805
G1 X146.753 Y139.303 E.03975
G1 X147.014 Y139.924 E.06125
G1 X147.101 Y140.346 E.03918
G1 X147.098 Y146.29 E.54049
G1 X146.988 Y146.774 E.04513
G1 X146.703 Y147.403 E.06279
G1 X146.456 Y147.737 E.03777
G1 X145.586 Y148.576 E.1099
G1 X144.785 Y148.975 E.08137
G1 X144.246 Y149.09 E.05011
G1 X137.478 Y149.095 E.61541
G1 X137.478 Y152.546 E.3138
G1 X137.381 Y153.079 E.04926
G1 X136.918 Y154.008 E.09438
G1 X136.078 Y154.861 E.10886
G1 X135.67 Y155.138 E.04484
G1 X135.03 Y155.397 E.06278
G1 X134.548 Y155.481 E.04449
G1 X123.41 Y155.468 E1.01277
G1 X122.936 Y155.362 E.04417
G1 X122.129 Y154.961 E.08194
G1 X121.258 Y154.122 E.10997
G1 X121.012 Y153.788 E.03772
G1 X120.728 Y153.161 E.06259
G1 X120.604 Y152.55 E.05669
G1 X120.604 Y142.538 E.91039
G1 X120.723 Y141.937 E.05571
G1 X121.124 Y141.132 E.08178
G1 X121.963 Y140.262 E.1099
G1 X122.296 Y140.015 E.0377
G1 X122.824 Y139.776 E.0527
G1 X122.824 Y139.776 F7800
G1 X123.076 Y140.346
G1 F1800
G1 X123.143 Y140.317 E.00664
G1 X123.566 Y140.232 E.03923
G1 X134.864 Y140.282 E1.02733
G1 X135.27 Y139.406 E.08779
G1 X136.071 Y138.594 E.10371
G1 X136.381 Y138.395 E.0335
G1 X137.197 Y138.147 E.07755
G1 X144.212 Y138.153 E.63787
G1 X144.97 Y138.396 E.07238
G1 X145.328 Y138.636 E.03919
G1 X146.041 Y139.358 E.09227
G1 X146.423 Y140.129 E.07824
G1 X146.481 Y140.433 E.02814
G1 X146.48 Y146.193 E.52375
G1 X146.402 Y146.554 E.03358
G1 X145.999 Y147.31 E.0779
G1 X145.227 Y148.064 E.09812
G1 X144.571 Y148.387 E.06649
G1 X144.212 Y148.465 E.03341
G1 X136.853 Y148.471 E.66915
G1 X136.853 Y152.519 E.36808
G1 X136.789 Y152.877 E.03307
G1 X136.445 Y153.597 E.07256
G1 X135.694 Y154.367 E.0978
G1 X134.882 Y154.789 E.08321
G1 X134.518 Y154.856 E.03365
G1 X123.507 Y154.85 E1.00123
G1 X123.147 Y154.773 E.03348
G1 X122.488 Y154.449 E.06677
G1 X121.538 Y153.451 E.12529
G1 X121.313 Y152.941 E.05069
G1 X121.229 Y152.519 E.03913
G1 X121.229 Y142.569 E.90475
G1 X121.312 Y142.148 E.03902
G1 X121.636 Y141.491 E.06661
G1 X122.634 Y140.542 E.12523
G1 X123.021 Y140.371 E.03847
G1 X123.021 Y140.371 F7800
G1 X123.23 Y140.982
G1 F1800
G1 X123.596 Y140.857 E.03517
G1 X134.485 Y140.857 E.99013
G1 X135.487 Y141.22 E.09691
G1 X135.519 Y140.327 E.08125
G1 X135.777 Y139.771 E.05573
G1 X136.487 Y139.062 E.09124
G1 X137.042 Y138.804 E.05565
G1 X144.176 Y138.778 E.6487
G1 X144.905 Y139.097 E.07236
G1 X145.571 Y139.771 E.08616
G1 X145.829 Y140.327 E.05573
G1 X145.861 Y146.103 E.52522
G1 X145.645 Y146.736 E.06082
G1 X144.862 Y147.556 E.1031
G1 X144.176 Y147.84 E.06751
G1 X137.229 Y147.846 E.63169
G1 X136.228 Y147.483 E.09682
G1 X136.228 Y152.492 E.45547
G1 X135.937 Y153.232 E.0723
G1 X135.118 Y154.015 E.10303
G1 X134.485 Y154.231 E.06082
G1 X123.596 Y154.231 E.99013
G1 X122.853 Y153.941 E.07252
G1 X122.07 Y153.121 E.1031
G1 X121.854 Y152.489 E.06073
G1 X121.854 Y142.599 E.89929
G1 X122.144 Y141.856 E.07252
G1 X122.963 Y141.073 E.10303
G1 X123.173 Y141.001 E.02019
G1 X123.173 Y141.001 F7800
G1 X123.388 Y141.572
G1 F1800
G1 X123.627 Y141.482 E.02322
G1 X134.455 Y141.482 E.98459
G1 X134.853 Y141.647 E.03918
G1 X135.427 Y142.221 E.07381
G1 X135.638 Y142.619 E.04096
G1 X136.112 Y142.501 E.04442
G1 X136.112 Y140.545 E.17786
G1 X136.243 Y140.198 E.03373
G1 X136.862 Y139.562 E.0807
G1 X137.2 Y139.409 E.03374
G1 X144.088 Y139.397 E.62632
G1 X144.486 Y139.562 E.03918
G1 X145.071 Y140.147 E.07523
G1 X145.236 Y140.545 E.03918
G1 X145.236 Y146.073 E.50266
G1 X145.106 Y146.42 E.03369
G1 X144.486 Y147.056 E.08076
G1 X144.088 Y147.221 E.03918
G1 X137.26 Y147.221 E.62087
G1 X136.862 Y147.056 E.03918
G1 X136.288 Y146.482 E.07381
G1 X136.077 Y146.084 E.04096
G1 X135.603 Y146.202 E.04442
G1 X135.603 Y152.458 E.56886
G1 X135.438 Y152.856 E.03918
G1 X134.802 Y153.476 E.08076
G1 X134.455 Y153.606 E.03369
G1 X123.627 Y153.606 E.98459
G1 X123.229 Y153.441 E.03918
G1 X122.609 Y152.805 E.08076
G1 X122.479 Y152.458 E.03369
G1 X122.479 Y142.63 E.89366
G1 X122.643 Y142.232 E.03914
G1 X123.28 Y141.613 E.08077
G1 X123.332 Y141.593 E.00507
G1 X123.332 Y141.593 F7800
G1 X123.605 Y142.154
G1 F1800
G1 X134.477 Y142.154 E.98859
G1 X134.978 Y142.723 E.06894
G1 X134.978 Y152.365 E.87674
G1 X134.477 Y152.934 E.06894
G1 X123.72 Y152.981 E.97814
G1 X123.151 Y152.48 E.06894
M73 P1 R29
G1 X123.103 Y142.723 E.88721
G1 X123.565 Y142.199 E.06352
G1 X123.565 Y142.199 F7800
G1 X123.911 Y142.732
G1 F1800
G1 X134.17 Y142.732 E.93285
G1 X134.353 Y142.915 E.02353
G1 X134.353 Y152.173 E.84183
G1 X134.17 Y152.356 E.02353
G1 X123.911 Y152.356 E.93285
G1 X123.728 Y152.173 E.02353
G1 X123.728 Y142.915 E.84183
G1 X123.869 Y142.774 E.01813
;WIPE_START
G1 F6240
G1 X123.911 Y142.732 E-.01899
G1 X126.354 Y142.732 E-.78101
;WIPE_END
G1 Z.75 F7800
G1 X136.754 Y142.662
G1 Z.35
M73 P2 R29
M73 Q2 S30
G1 E.8 F2100
G1 F1800
G1 X136.737 Y140.638 E.18405
G1 X137.238 Y140.069 E.06894
G1 X144.11 Y140.069 E.62487
G1 X144.611 Y140.638 E.06894
G1 X144.611 Y145.98 E.48575
G1 X144.11 Y146.549 E.06894
G1 X137.353 Y146.596 E.61443
G1 X136.784 Y146.095 E.06894
G1 X136.755 Y142.722 E.30672
G1 X136.755 Y142.722 F7800
G1 X137.362 Y142.722
G1 F1800
G1 X137.362 Y140.829 E.17213
G1 X137.545 Y140.646 E.02353
G1 X143.803 Y140.646 E.56904
G1 X143.986 Y140.829 E.02353
G1 X143.986 Y145.788 E.45092
G1 X143.803 Y145.971 E.02353
G1 X137.545 Y145.971 E.56904
G1 X137.362 Y145.788 E.02353
G1 X137.362 Y142.782 E.27333
;WIPE_START
G1 F6240
G1 X137.362 Y142.722 E-.01918
G1 X137.362 Y140.829 E-.60521
G1 X137.545 Y140.646 E-.08274
G1 X137.836 Y140.646 E-.09287
;WIPE_END
G1 Z.75 F7800
G1 X137.362 Y135.243
G1 Z.35
G1 E.8 F2100
G1 F1800
G1 X113.331 Y135.243 E2.18513
G1 X111.971 Y135.074 E.12462
M73 Q2 S29
G1 X110.659 Y134.628 E.126
G1 X109.464 Y133.916 E.12649
G1 X108.467 Y133.008 E.12262
G1 X107.287 Y131.134 E.20137
G1 X106.918 Y129.937 E.1139
G1 X106.774 Y128.68 E.11505
G1 X106.774 Y92.427 E3.29647
G1 X106.942 Y91.068 E.12451
G1 X107.389 Y89.756 E.12603
G1 X108.101 Y88.56 E.12656
G1 X109.021 Y87.55 E.12423
G1 X110.967 Y86.353 E.20774
G1 X112.106 Y86.009 E.10819
G1 X113.341 Y85.87 E.11301
G1 X154.648 Y85.876 E3.75603
G1 X155.985 Y86.047 E.12256
G1 X157.293 Y86.5 E.12587
G1 X158.46 Y87.199 E.12369
G1 X159.449 Y88.1 E.12165
G1 X160.631 Y89.971 E.20124
G1 X160.974 Y91.047 E.10269
G1 X161.135 Y92.238 E.10928
G1 X161.147 Y128.686 E3.3142
G1 X160.978 Y130.045 E.12453
G1 X160.531 Y131.357 E.12603
G1 X159.82 Y132.553 E.12652
G1 X158.912 Y133.55 E.12262
G1 X157.038 Y134.73 E.20137
G1 X155.841 Y135.098 E.11387
G1 X154.584 Y135.243 E.11506
G1 X137.422 Y135.243 E1.56053
G1 X137.422 Y135.243 F7800
G1 X137.422 Y134.618
G1 F1800
G1 X113.351 Y134.618 E2.18877
G1 X112.083 Y134.459 E.1162
G1 X110.896 Y134.048 E.11422
G1 X109.814 Y133.398 E.11477
G1 X108.921 Y132.577 E.1103
G1 X107.871 Y130.909 E.17922
G1 X107.536 Y129.835 E.1023
G1 X107.398 Y128.662 E.1074
G1 X107.398 Y92.447 E3.29301
G1 X107.558 Y91.179 E.11621
G1 X107.968 Y89.992 E.11419
G1 X108.619 Y88.91 E.11482
G1 X109.451 Y88.006 E.11172
G1 X111.186 Y86.94 E.18516
G1 X112.259 Y86.616 E.10192
G1 X113.358 Y86.495 E.10054
G1 X154.629 Y86.501 E3.75275
G1 X155.814 Y86.649 E.10859
G1 X157.004 Y87.055 E.11433
G1 X158.064 Y87.683 E.11203
G1 X158.997 Y88.533 E.11477
G1 X160.047 Y90.199 E.17907
G1 X160.37 Y91.21 E.09651
G1 X160.513 Y92.299 E.09987
G1 X160.522 Y128.666 E3.30684
G1 X160.362 Y129.934 E.11621
G1 X159.952 Y131.121 E.11419
G1 X159.301 Y132.203 E.11482
G1 X158.48 Y133.096 E.1103
G1 X156.812 Y134.146 E.17922
G1 X155.738 Y134.481 E.1023
G1 X154.566 Y134.618 E.1073
G1 X137.482 Y134.618 E1.55344
G1 X137.482 Y134.618 F7800
G1 X137.482 Y133.993
G1 F1800
G1 X113.369 Y133.993 E2.19258
G1 X112.252 Y133.856 E.10233
G1 X111.186 Y133.494 E.10237
G1 X110.213 Y132.915 E.10295
G1 X109.374 Y132.145 E.10355
G1 X108.456 Y130.684 E.1569
G1 X108.141 Y129.677 E.09594
G1 X108.023 Y128.645 E.09445
G1 X108.023 Y92.466 E3.28974
G1 X108.16 Y91.348 E.10242
G1 X108.523 Y90.282 E.1024
G1 X109.102 Y89.309 E.10295
G1 X109.882 Y88.461 E.10477
G1 X111.408 Y87.525 E.16278
G1 X112.358 Y87.233 E.09037
G1 X113.376 Y87.12 E.09313
G1 X154.608 Y87.125 E3.74921
G1 X155.702 Y87.264 E.10028
M73 P3 R29
M73 Q3 S29
G1 X156.767 Y87.634 E.10252
G1 X157.714 Y88.202 E.10041
G1 X158.543 Y88.964 E.10239
G1 X159.464 Y90.427 E.1572
G1 X159.766 Y91.372 E.09021
G1 X159.891 Y92.357 E.09028
G1 X159.897 Y128.647 E3.29983
G1 X159.76 Y129.765 E.10242
G1 X159.398 Y130.831 E.10237
G1 X158.819 Y131.804 E.10295
G1 X158.049 Y132.642 E.10348
G1 X156.587 Y133.561 E.15702
G1 X155.581 Y133.876 E.09585
G1 X154.548 Y133.993 E.09453
G1 X137.542 Y133.993 E1.54635
G1 X137.542 Y133.993 F7800
G1 X137.542 Y133.368
G1 F1800
G1 X113.389 Y133.368 E2.19622
G1 X112.363 Y133.24 E.09402
G1 X111.422 Y132.915 E.09052
G1 X110.564 Y132.398 E.09109
G1 X109.83 Y131.716 E.09111
G1 X109.039 Y130.456 E.13528
G1 X108.758 Y129.574 E.08417
G1 X108.648 Y128.626 E.08678
G1 X108.648 Y92.485 E3.28629
G1 X108.776 Y91.459 E.09402
G1 X109.102 Y90.519 E.09047
G1 X109.619 Y89.66 E.09116
G1 X110.309 Y88.918 E.09213
G1 X111.629 Y88.111 E.14068
G1 X112.513 Y87.839 E.0841
G1 X113.392 Y87.744 E.08039
G1 X154.588 Y87.75 E3.74594
G1 X155.588 Y87.88 E.09169
G1 X156.526 Y88.212 E.09048
G1 X157.361 Y88.718 E.08878
G1 X158.087 Y89.394 E.0902
G1 X158.881 Y90.654 E.13542
G1 X159.161 Y91.533 E.08388
