; generated by PrusaSlicer 2.8.0+win64 on 2025-04-10 at 12:58:40 UTC


;
;
; 

; external perimeters extrusion width = 0.45mm
; perimeters extrusion width = 0.45mm
; infill extrusion width = 0.45mm
; solid infill extrusion width = 0.45mm
; top infill extrusion width = 0.40mm
; support material extrusion width = 0.40mm
; first layer extrusion width = 0.70mm

M73 P0 R2
M73 Q0 S2
M201 X1000 Y1000 Z200 E5000 ; sets maximum accelerations, mm/sec^2
M203 X200 Y200 Z12 E120 ; sets maximum feedrates, mm / sec
M204 S1250 T1250 ; sets acceleration (S) and retract acceleration (R), mm/sec^2
M205 X8.00 Y8.00 Z0.40 E4.50 ; sets the jerk limits, mm/sec
M205 S0 T0 ; sets the minimum extruding and travel feed rate, mm/sec
;TYPE:Custom
M862.3 P "MK3S" ; printer model check
M862.1 P0.4 ; nozzle diameter check
M115 U3.14.0 ; tell printer latest fw version
G90 ; use absolute coordinates
M83 ; extruder relative mode
M104 S215 ; set extruder temp
M140 S60 ; set bed temp
M190 S60 ; wait for bed temp
M109 S215 ; wait for extruder temp
G28 W ; home all without mesh bed level
G80 X3.79793 Y91.9777 W29.2498 H27.9498 ; mesh bed levelling

G1 Z0.2 F720
G1 Y-3 F1000 ; go outside print area
G92 E0
G1 X60 E9 F1000 ; intro line
G1 X100 E12.5 F1000 ; intro line
M73 P3 R2
M73 Q3 S2

G92 E0
M221 S95

; Don't change E values below. Excessive value can damage the printer.

G21 ; set units to millimeters
G90 ; use absolute coordinates
M83 ; use relative distances for extrusion

M900 K0.05 ; Filament gcode LA 1.5
M900 K30 ; Filament gcode LA 1.0




M107
;LAYER_CHANGE
;Z:0.35
;HEIGHT:0.35
G1 E-.8 F2100
M73 P4 R1
M73 Q4 S1
G1 Z.75 F7800
M73 Q5 S1
G1 X13.352 Y92.29
M73 P5 R1
G1 Z.35
G1 E.8 F2100
M73 P6 R1
M73 Q6 S1
;TYPE:Skirt/Brim
;WIDTH:0.7
G1 F1800
G1 X23.494 Y92.29 E.92221
G1 X25.697 Y92.687 E.20354
G1 X27.957 Y94.139 E.24426
G1 X30.886 Y97.068 E.37665
G1 X32.163 Y98.906 E.20351
G1 X32.735 Y101.532 E.24438
G1 X32.735 Y110.374 E.804
G1 X32.338 Y112.576 E.20346
G1 X30.886 Y114.837 E.24434
M73 P7 R1
M73 Q7 S1
G1 X27.957 Y117.766 E.37665
G1 X26.119 Y119.043 E.20351
G1 X23.494 Y119.615 E.24429
G1 X13.352 Y119.615 E.92221
G1 X11.149 Y119.218 E.20354
G1 X8.888 Y117.766 E.24434
G1 X5.959 Y114.837 E.37665
G1 X4.682 Y112.999 E.20351
G1 X4.11 Y110.374 E.24429
G1 X4.11 Y101.532 E.804
G1 X4.507 Y99.329 E.20354
M73 P8 R1
M73 Q8 S1
G1 X5.959 Y97.068 E.24434
G1 X8.888 Y94.139 E.37665
G1 X10.726 Y92.862 E.20351
G1 X13.293 Y92.303 E.23889
;WIPE_START
G1 F6240
G1 X13.352 Y92.29 E-.01932
G1 X15.794 Y92.29 E-.78068
;WIPE_END
G1 Z.75 F7800
G1 X14.485 Y98.957
G1 Z.35
G1 E.8 F2100
G1 F1800
G1 X22.361 Y98.957 E.71616
G1 X22.966 Y99.113 E.05681
M73 P9 R1
M73 Q9 S1
G1 X23.521 Y99.343 E.05463
G1 X24.353 Y99.904 E.09124
G1 X25.374 Y100.985 E.13521
G1 X25.912 Y102.06 E.10931
G1 X26.068 Y102.664 E.05672
G1 X26.104 Y108.927 E.5695
G1 X25.919 Y109.829 E.08373
G1 X25.661 Y110.441 E.06039
G1 X25.311 Y111.002 E.06013
G1 X24.357 Y111.997 E.12534
G1 X23.803 Y112.408 E.06272
G1 X22.927 Y112.804 E.08742
G1 X21.992 Y112.989 E.08667
G1 X14.855 Y112.989 E.64896
G1 X13.896 Y112.798 E.08891
G1 X13.285 Y112.541 E.06027
G1 X12.724 Y112.19 E.06017
G1 X11.727 Y111.235 E.12554
G1 X11.349 Y110.736 E.05692
G1 X10.942 Y109.871 E.08693
G1 X10.742 Y108.932 E.0873
G1 X10.742 Y102.975 E.54167
M73 P10 R1
G1 X10.928 Y102.073 E.08374
M73 Q10 S1
G1 X11.187 Y101.459 E.06059
G1 X11.54 Y100.897 E.06035
G1 X12.804 Y99.652 E.16133
G1 X13.881 Y99.113 E.10951
G1 X14.427 Y98.972 E.05128
G1 X14.427 Y98.972 F7800
G1 X14.58 Y99.577
G1 F1800
G1 X14.6 Y99.572 E.00187
G1 X22.246 Y99.572 E.69525
G1 X23.254 Y99.909 E.09664
G1 X23.925 Y100.36 E.07351
G1 X24.856 Y101.336 E.12265
G1 X25.326 Y102.277 E.09564
G1 X25.453 Y102.779 E.04708
G1 X25.485 Y108.837 E.55086
G1 X25.329 Y109.62 E.0726
G1 X24.799 Y110.642 E.10468
G1 X23.925 Y111.544 E.11421
G1 X23.51 Y111.855 E.04716
G1 X22.764 Y112.2 E.07474
G1 X21.959 Y112.364 E.0747
G1 X14.886 Y112.364 E.64314
G1 X14.105 Y112.209 E.0724
M73 P11 R1
M73 Q11 S1
G1 X13.083 Y111.678 E.10472
G1 X12.181 Y110.805 E.11414
G1 X11.87 Y110.389 E.04723
G1 X11.525 Y109.644 E.07465
G1 X11.361 Y108.839 E.0747
G1 X11.361 Y103.066 E.52494
G1 X11.516 Y102.286 E.07231
G1 X12.047 Y101.262 E.10489
G1 X13.156 Y100.17 E.14152
G1 X14.097 Y99.699 E.09568
G1 X14.522 Y99.592 E.03985
G1 X14.522 Y99.592 F7800
G1 X14.672 Y100.198
G1 F1800
G1 X14.712 Y100.188 E.00375
G1 X22.134 Y100.188 E.67488
G1 X22.532 Y100.286 E.03727
G1 X22.986 Y100.474 E.04468
G1 X23.499 Y100.818 E.05616
G1 X24.34 Y101.691 E.11022
G1 X24.739 Y102.494 E.08153
G1 X24.838 Y102.892 E.03729
G1 X24.86 Y108.808 E.53794
G1 X24.74 Y109.409 E.05573
M73 P12 R1
M73 Q12 S1
G1 X24.29 Y110.278 E.08898
G1 X23.167 Y111.332 E.14004
G1 X22.54 Y111.616 E.06259
G1 X21.929 Y111.739 E.05667
G1 X14.917 Y111.739 E.6376
G1 X14.316 Y111.62 E.05571
G1 X13.447 Y111.169 E.08903
G1 X12.394 Y110.047 E.13992
G1 X12.11 Y109.42 E.06259
G1 X11.986 Y108.808 E.05678
G1 X11.986 Y103.097 E.5193
G1 X12.105 Y102.496 E.05571
G1 X12.556 Y101.627 E.08903
G1 X13.512 Y100.685 E.12204
G1 X14.314 Y100.286 E.08145
G1 X14.613 Y100.212 E.02801
G1 X14.613 Y100.212 F7800
G1 X14.82 Y100.804
G1 F1800
G1 X22.026 Y100.804 E.65524
G1 X22.719 Y101.04 E.06657
M73 P13 R1
M73 Q13 S1
G1 X23.076 Y101.279 E.03906
G1 X23.827 Y102.049 E.0978
G1 X24.221 Y103 E.0936
G1 X24.235 Y108.778 E.52539
G1 X24.151 Y109.198 E.03895
G1 X23.784 Y109.91 E.07284
G1 X22.83 Y110.805 E.11895
G1 X22.32 Y111.03 E.05069
G1 X21.898 Y111.115 E.03914
G1 X14.948 Y111.115 E.63196
G1 X14.527 Y111.031 E.03904
G1 X13.816 Y110.664 E.07276
G1 X12.921 Y109.71 E.11895
G1 X12.696 Y109.2 E.05069
G1 X12.611 Y108.778 E.03914
G1 X12.611 Y103.127 E.51384
G1 X12.694 Y102.707 E.03893
G1 X13.061 Y101.996 E.07276
G1 X13.87 Y101.197 E.10339
G1 X14.764 Y100.827 E.08798
G1 X14.764 Y100.827 F7800
G1 X14.921 Y101.421
G1 F1800
G1 X22.104 Y101.462 E.65316
G1 X22.654 Y101.741 E.05608
M73 P14 R1
M73 Q14 S1
G1 X23.319 Y102.414 E.08603
G1 X23.604 Y103.101 E.06763
G1 X23.61 Y108.747 E.51339
G1 X23.284 Y109.535 E.07754
G1 X22.5 Y110.273 E.0979
G1 X21.867 Y110.49 E.06085
G1 X14.978 Y110.49 E.62641
G1 X14.191 Y110.163 E.07749
G1 X13.452 Y109.38 E.0979
G1 X13.236 Y108.747 E.06082
G1 X13.236 Y103.158 E.50821
G1 X13.561 Y102.371 E.07742
G1 X14.235 Y101.706 E.0861
G1 X14.866 Y101.444 E.06213
G1 X14.866 Y101.444 F7800
G1 X15.009 Y102.04
G1 F1800
G1 X21.837 Y102.04 E.62087
G1 X22.235 Y102.205 E.03918
M73 P15 R1
M73 Q15 S1
G1 X22.82 Y102.791 E.07529
G1 X22.985 Y103.189 E.03918
G1 X22.985 Y108.716 E.50257
G1 X22.82 Y109.115 E.03926
G1 X22.235 Y109.7 E.07523
G1 X21.837 Y109.865 E.03918
G1 X15.009 Y109.865 E.62087
G1 X14.611 Y109.7 E.03918
G1 X14.025 Y109.115 E.07529
G1 X13.861 Y108.716 E.03923
G1 X13.861 Y103.189 E.50257
G1 X14.025 Y102.791 E.03914
G1 X14.611 Y102.205 E.07536
G1 X14.953 Y102.063 E.03367
G1 X14.953 Y102.063 F7800
G1 X14.987 Y102.713
G1 F1800
G1 X21.859 Y102.713 E.62487
G1 X22.36 Y103.282 E.06894
M73 P16 R1
M73 Q16 S1
G1 X22.36 Y108.624 E.48575
G1 X21.859 Y109.192 E.06887
G1 X15.102 Y109.24 E.61443
G1 X14.533 Y108.738 E.069
G1 X14.485 Y103.282 E.49613
G1 X14.947 Y102.758 E.06352
G1 X14.947 Y102.758 F7800
G1 X15.293 Y103.29
G1 F1800
G1 X21.552 Y103.29 E.56913
G1 X21.735 Y103.473 E.02353
G1 X21.735 Y108.432 E.45092
G1 X21.552 Y108.615 E.02353
M73 P17 R1
G1 X15.293 Y108.615 E.56913
G1 X15.11 Y108.432 E.02353
M73 Q17 S1
G1 X15.11 Y103.473 E.45092
G1 X15.251 Y103.333 E.01807
;WIPE_START
G1 F6240
G1 X15.293 Y103.29 E-.01922
G1 X17.735 Y103.29 E-.78078
;WIPE_END
G1 Z.75 F7800
G1 X18.477 Y104.756
G1 Z.35
G1 E.8 F2100
;TYPE:Support material
G1 F1800
G1 X18.995 Y104.9 E.04889
G1 X19.286 Y105.122 E.03328
G1 X19.5 Y105.429 E.03403
G1 X19.621 Y105.953 E.0489
G1 X19.565 Y106.314 E.03322
G1 X19.286 Y106.784 E.0497
G1 X18.987 Y107.009 E.03403
G1 X18.469 Y107.15 E.04882
G1 X18.105 Y107.108 E.03332
G1 X17.626 Y106.847 E.0496
G1 X17.393 Y106.565 E.03326
G1 X17.228 Y106.044 E.04969
G1 X17.256 Y105.68 E.0332
G1 X17.498 Y105.19 E.04969
G1 X17.933 Y104.859 E.0497
G1 X18.384 Y104.758 E.04203
G1 X18.384 Y104.758 F7800
G1 X18.423 Y106.867
G1 F1800
G1 X18.423 Y105.038 E.16631
;WIPE_START
G1 F6240
M73 P18 R1
G1 X18.423 Y106.867 E-.58475
;WIPE_END
G1 E-.21525 F2100
M73 Q18 S1
G1 Z.75 F7800
G1 X18.814 Y107.997
G1 Z.35
G1 E.8 F2100
;TYPE:External perimeter
;WIDTH:0.612087
G1 F1800
G1 X18.224 Y108.009 E.04611
;WIDTH:0.596195
G1 X18.145 Y108.004 E.006
;WIPE_START
G1 F6240
G1 X18.224 Y108.009 E-.02531
G1 X18.814 Y107.997 E-.18867
;WIPE_END
G1 E-.58602 F2100
G1 Z.75 F7800
G1 X17.894 Y103.924
G1 Z.35
G1 E.8 F2100
;WIDTH:0.643803
G1 F1800
G1 X18.179 Y103.908 E.02362
;WIDTH:0.610837
G1 X18.463 Y103.892 E.02217
;WIDTH:0.580847
G1 X18.54 Y103.893 E.00567
;WIPE_START
G1 F6240
G1 X18.463 Y103.892 E-.02462
G1 X18.179 Y103.908 E-.09094
G1 X17.894 Y103.924 E-.09126
;WIPE_END
G1 E-.59318 F2100
G1 Z.75 F7800
G1 X16.301 Y104.416
G1 Z.35
G1 E.8 F2100
;TYPE:Perimeter
;WIDTH:0.459305
G1 F1800
G1 X16.229 Y104.457 E.00463
G1 X16.301 Y104.499 E.00466
G1 X16.325 Y104.457 E.0027
;WIPE_START
G1 F6240
G1 X16.301 Y104.499 E-.01547
G1 X16.229 Y104.457 E-.02665
G1 X16.301 Y104.416 E-.02649
;WIPE_END
G1 E-.73139 F2100
G1 Z.75 F7800
G1 X16.301 Y107.407
M73 P19 R1
M73 Q19 S1
G1 Z.35
G1 E.8 F2100
;WIDTH:0.457865
G1 F1800
G1 X16.229 Y107.449 E.00464
G1 X16.301 Y107.49 E.00461
G1 X16.324 Y107.449 E.00262
;WIPE_START
G1 F6240
G1 X16.301 Y107.49 E-.01503
G1 X16.229 Y107.449 E-.02649
G1 X16.301 Y107.407 E-.02665
;WIPE_END
G1 E-.73183 F2100
G1 Z.75 F7800
G1 X16.474 Y105.139
G1 Z.35
G1 E.8 F2100
;TYPE:External perimeter
;WIDTH:0.7
G1 F1800
G1 X16.437 Y105.204 E.0068
G1 X16.327 Y105.835 E.05824
;WIDTH:0.685365
G1 X16.375 Y106.48 E.05743
;WIDTH:0.7
G1 X16.575 Y106.996 E.05032
G1 X16.665 Y107.128 E.01453
G1 X17.047 Y107.568 E.05298
G1 X17.598 Y107.908 E.05887
G1 X17.781 Y107.94 E.01689
;WIDTH:0.665398
G1 X17.963 Y107.972 E.01587
;WIDTH:0.630796
G1 X18.145 Y108.004 E.01494
G1 X17.961 Y107.987 E.01494
;WIDTH:0.665398
G1 X17.777 Y107.97 E.01587
;WIDTH:0.7
G1 X17.592 Y107.953 E.01689
G1 X15.773 Y107.953 E.1654
G1 X15.76 Y106.411 E.14022
;WIDTH:0.674719
G1 X15.753 Y105.68 E.06378
;WIDTH:0.7
G1 X15.773 Y105.127 E.05032
G1 X15.773 Y103.953 E.10675
G1 X17.581 Y103.939 E.16441
;WIDTH:0.671901
G1 X17.894 Y103.924 E.02721
;WIDTH:0.653971
G1 X17.825 Y103.94 E.00597
;WIDTH:0.7
G1 X17.23 Y104.198 E.05897
G1 X16.817 Y104.566 E.0503
G1 X16.711 Y104.715 E.01663
G1 X16.503 Y105.087 E.03875
;WIPE_START
G1 F6240
G1 X16.474 Y105.139 E-.01904
G1 X16.437 Y105.204 E-.02391
G1 X16.327 Y105.835 E-.20478
G1 X16.375 Y106.48 E-.20678
G1 X16.575 Y106.996 E-.17693
M73 P20 R1
G1 X16.665 Y107.128 E-.05108
G1 X16.906 Y107.406 E-.11748
;WIPE_END
G1 Z.75 F7800
M73 Q20 S1
G1 X20.59 Y104.418
G1 Z.35
G1 E.8 F2100
;TYPE:Perimeter
;WIDTH:0.464981
G1 F1800
G1 X20.517 Y104.46 E.00478
G1 X20.59 Y104.502 E.00478
G1 X20.614 Y104.46 E.00274
;WIPE_START
G1 F6240
G1 X20.59 Y104.502 E-.01547
G1 X20.517 Y104.46 E-.02693
G1 X20.59 Y104.418 E-.02693
;WIPE_END
G1 E-.73067 F2100
G1 Z.75 F7800
G1 X20.59 Y107.403
G1 Z.35
G1 E.8 F2100
;WIDTH:0.464983
G1 F1800
G1 X20.517 Y107.445 E.00478
G1 X20.59 Y107.487 E.00478
G1 X20.614 Y107.445 E.00274
;WIPE_START
G1 F6240
G1 X20.59 Y107.487 E-.01547
G1 X20.517 Y107.445 E-.02693
G1 X20.59 Y107.403 E-.02693
;WIPE_END
G1 E-.73067 F2100
G1 Z.75 F7800
G1 X19.134 Y103.953
G1 Z.35
G1 E.8 F2100
;TYPE:External perimeter
;WIDTH:0.7
G1 F1800
G1 X21.073 Y103.953 E.17631
G1 X21.073 Y104.46 E.0461
G1 X21.093 Y105.676 E.11059
;WIDTH:0.67203
G1 X21.087 Y106.411 E.06384
M73 P21 R1
M73 Q21 S1
;WIDTH:0.7
G1 X21.073 Y107.953 E.14022
G1 X19.414 Y107.953 E.15085
G1 X19.137 Y107.972 E.02525
;WIDTH:0.661187
G1 X18.861 Y107.99 E.02359
G1 X19.169 Y107.892 E.02756
;WIDTH:0.7
G1 X19.478 Y107.794 E.02948
G1 X19.984 Y107.389 E.05893
G1 X20.345 Y106.851 E.05891
G1 X20.507 Y106.23 E.05836
;WIDTH:0.674592
G1 X20.5 Y105.585 E.05627
;WIDTH:0.7
G1 X20.303 Y104.969 E.05881
G1 X19.92 Y104.449 E.05872
G1 X19.525 Y104.142 E.04549
G1 X19.188 Y103.979 E.03404
M106 S84.15
;LAYER_CHANGE
;Z:0.5
;HEIGHT:0.15
;BEFORE_LAYER_CHANGE
G92 E0.0
;0.5


;WIPE_START
G1 F6240
G1 X19.134 Y103.953 E-.01916
G1 X21.073 Y103.953 E-.61992
G1 X21.073 Y104.456 E-.16092
;WIPE_END
G1 Z.5 F7800
;AFTER_LAYER_CHANGE
;0.5
M104 S210 ; set temperature
G1 Z.9
G1 X17.242 Y105.953
G1 Z.5
G1 E.8 F2100
;TYPE:Support material
;WIDTH:0.4
G1 F900
G1 X19.607 Y105.953 E.05425
G1 X19.607 Y105.953 F7800
G1 X18.477 Y104.605
G1 F900
G1 X19.067 Y104.768 E.01404
G1 X19.395 Y105.017 E.00945
G1 X19.708 Y105.543 E.01404
G1 X19.772 Y105.953 E.00952
G1 X19.709 Y106.36 E.00945
G1 X19.395 Y106.888 E.01409
M73 P22 R1
M73 Q22 S1
G1 X18.926 Y107.201 E.01293
G1 X18.474 Y107.3 E.01061
G1 X18.065 Y107.253 E.00944
G1 X17.525 Y106.959 E.0141
G1 X17.236 Y106.587 E.01081
G1 X17.078 Y106.056 E.01271
G1 X17.11 Y105.645 E.00946
G1 X17.382 Y105.094 E.01409
G1 X17.871 Y104.722 E.01409
G1 X18.422 Y104.607 E.01291
;LAYER_CHANGE
;Z:0.65
;HEIGHT:0.15
;BEFORE_LAYER_CHANGE
G92 E0.0
;0.65


;WIPE_START
G1 F6240
G1 X17.871 Y104.722 E-.17996
G1 X17.382 Y105.094 E-.19644
G1 X17.11 Y105.645 E-.19646
G1 X17.078 Y106.056 E-.1318
G1 X17.163 Y106.342 E-.09534
;WIPE_END
G1 Z.65 F7800
;AFTER_LAYER_CHANGE
;0.65
G1 Z.65
G1 X17.242 Y105.953
G1 E.8 F2100
G1 F900
G1 X19.607 Y105.953 E.05425
G1 X19.607 Y105.953 F7800
G1 X18.477 Y104.605
G1 F900
G1 X19.067 Y104.768 E.01404
G1 X19.395 Y105.017 E.00945
G1 X19.709 Y105.546 E.01411
G1 X19.772 Y105.953 E.00945
G1 X19.709 Y106.36 E.00945
G1 X19.395 Y106.888 E.01409
G1 X18.926 Y107.201 E.01293
G1 X18.474 Y107.3 E.01061
G1 X18.065 Y107.253 E.00944
G1 X17.525 Y106.959 E.0141
G1 X17.236 Y106.587 E.01081
G1 X17.078 Y106.056 E.01271
G1 X17.11 Y105.645 E.00946
M73 P23 R1
M73 Q23 S1
G1 X17.382 Y105.094 E.01409
G1 X17.871 Y104.722 E.01409
G1 X18.422 Y104.607 E.01291
;WIPE_START
G1 F6240
G1 X17.871 Y104.722 E-.17996
G1 X17.382 Y105.094 E-.19644
G1 X17.11 Y105.645 E-.19646
G1 X17.078 Y106.056 E-.1318
G1 X17.163 Y106.342 E-.09534
;WIPE_END
G1 Z1.05 F7800
G1 X18.814 Y107.997
G1 Z.65
G1 E.8 F2100
;TYPE:External perimeter
;WIDTH:0.612085
;HEIGHT:0.3
G1 F900
G1 X18.226 Y108.009 E.04018
;WIDTH:0.596339
G1 X18.145 Y108.004 E.00538
;WIPE_START
G1 F6240
G1 X18.226 Y108.009 E-.02595
G1 X18.814 Y107.997 E-.18803
;WIPE_END
G1 E-.58602 F2100
G1 Z1.05 F7800
G1 X17.894 Y103.925
G1 Z.65
G1 E.8 F2100
;WIDTH:0.643867
G1 F900
G1 X18.178 Y103.908 E.02056
;WIDTH:0.610895
G1 X18.463 Y103.892 E.01946
;WIDTH:0.609763
G1 X18.798 Y103.907 E.02281
;WIPE_START
G1 F6240
G1 X18.463 Y103.892 E-.10721
G1 X18.178 Y103.908 E-.09126
G1 X17.894 Y103.925 E-.09096
;WIPE_END
G1 E-.51057 F2100
G1 Z1.05 F7800
G1 X16.064 Y106.47
G1 Z.65
M73 P24 R1
M73 Q24 S1
G1 E.8 F2100
;TYPE:Perimeter
;WIDTH:0.510361
G1 F900
G1 X16.1 Y106.591 E.00702
;WIDTH:0.507104
G1 X16.404 Y107.26 E.04058
;WIDTH:0.500373
G1 X16.739 Y107.667 E.02867
G1 X16.059 Y107.667 E.03698
G1 X16.059 Y107.15 E.02811
;WIDTH:0.510361
G1 X16.063 Y106.53 E.03449
G1 X16.063 Y106.53 F7800
G1 X16.064 Y106.47
G1 F900
G1 X16.039 Y105.859 E.03402
;WIDTH:0.474509
G1 X16.046 Y105.68 E.00916
G1 X16.046 Y105.68 F7800
G1 X16.062 Y105.603
;WIDTH:0.50108
G1 F900
G1 X16.046 Y105.68 E.00428
G1 X16.059 Y104.239 E.07849
G1 X16.754 Y104.239 E.03785
G1 X16.627 Y104.352 E.00926
G1 X16.465 Y104.569 E.01475
G1 X16.158 Y105.139 E.03526
G1 X16.074 Y105.544 E.02253
G1 X16.074 Y105.544 F7800
G1 X16.464 Y105.665
;TYPE:External perimeter
;WIDTH:0.45
G1 F900
G1 X16.429 Y105.829 E.00807
G1 X16.484 Y106.436 E.02931
G1 X16.762 Y107.049 E.03237
G1 X17.116 Y107.464 E.02624
G1 X17.632 Y107.788 E.0293
;WIDTH:0.498779
G1 X17.803 Y107.86 E.01005
;WIDTH:0.547559
G1 X17.974 Y107.932 E.01118
;WIDTH:0.596339
G1 X18.145 Y108.004 E.01231
G1 X17.961 Y108.029 E.01232
;WIDTH:0.547559
G1 X17.777 Y108.053 E.01118
;WIDTH:0.498779
G1 X17.593 Y108.078 E.01006
;WIDTH:0.45
G1 X15.648 Y108.078 E.09355
G1 X15.648 Y103.828 E.20441
G1 X17.269 Y103.828 E.07796
M73 P25 R1
M73 Q25 S1
;WIDTH:0.498466
G1 X17.425 Y103.852 E.00855
;WIDTH:0.546933
G1 X17.581 Y103.876 E.0095
;WIDTH:0.5954
G1 X17.738 Y103.9 E.01052
;WIDTH:0.643867
G1 X17.894 Y103.925 E.01142
G1 X17.833 Y103.962 E.00516
